resources/icons/20px/layout-sorted-clusters.svg

<svg xmlns="http://www.w3.org/2000/svg" viewBox="0 0 20 20">
  <path d="M2 8c-1.1 0-2 .9-2 2s.9 2 2 2 2-.9 2-2-.9-2-2-2m0 8c-1.1 0-2 .9-2 2s.9 2 2 2 2-.9 2-2-.9-2-2-2M2 0C.9 0 0 .9 0 2s.9 2 2 2 2-.9 2-2-.9-2-2-2m16 8c-1.1 0-2 .9-2 2s.9 2 2 2 2-.9 2-2-.9-2-2-2m-8 4c-1.1 0-2 .9-2 2s.9 2 2 2 2-.9 2-2-.9-2-2-2m0-8c-1.1 0-2 .9-2 2s.9 2 2 2 2-.9 2-2-.9-2-2-2"/>
</svg>

<?xml version="1.0" encoding="utf-8"?>
<!-- Generator: Adobe Illustrator 18.1.0, SVG Export Plug-In . SVG Version: 6.00 Build 0)  -->
<svg version="1.1" id="Layer_1" xmlns="http://www.w3.org/2000/svg" xmlns:xlink="http://www.w3.org/1999/xlink" x="0px" y="0px"
	 viewBox="0 0 20 20" enable-background="new 0 0 20 20" xml:space="preserve">
<g id="layout_sorted_clusters_1_">
	<g>
		<path fill-rule="evenodd" clip-rule="evenodd" d="M2,8c-1.1,0-2,0.9-2,2s0.9,2,2,2s2-0.9,2-2S3.1,8,2,8z M2,16c-1.1,0-2,0.9-2,2
			s0.9,2,2,2s2-0.9,2-2S3.1,16,2,16z M2,0C0.9,0,0,0.9,0,2s0.9,2,2,2s2-0.9,2-2S3.1,0,2,0z M18,8c-1.1,0-2,0.9-2,2s0.9,2,2,2
			s2-0.9,2-2S19.1,8,18,8z M10,12c-1.1,0-2,0.9-2,2s0.9,2,2,2s2-0.9,2-2S11.1,12,10,12z M10,4C8.9,4,8,4.9,8,6s0.9,2,2,2s2-0.9,2-2
			S11.1,4,10,4z"/>
	</g>
</g>
</svg>
